Sources/FrostedUI/Resources/Icons.xcassets/expand16.imageset/expand-16.svg

<svg width="16" height="16" viewBox="0 0 16 16" fill="none" xmlns="http://www.w3.org/2000/svg" data-fui-icon="true">
  <path
    d="M8.96973 8.96973C9.26263 8.67701 9.73744 8.67689 10.0303 8.96973L13.2451 12.1836V9.8584C13.2451 9.44419 13.5809 9.1084 13.9951 9.1084C14.4091 9.10867 14.7451 9.44435 14.7451 9.8584V13.9941C14.7451 14.4082 14.4091 14.7439 13.9951 14.7441L9.85742 14.7451C9.44369 14.7448 9.10874 14.4088 9.1084 13.9951C9.10842 13.581 9.44429 13.2442 9.8584 13.2441H12.1846L8.96973 10.0303C8.6769 9.73745 8.67704 9.26264 8.96973 8.96973ZM6.14258 1.25488C6.55631 1.25519 6.89126 1.59115 6.8916 2.00488C6.89158 2.41901 6.55571 2.75575 6.1416 2.75586H3.81543L7.03027 5.96973C7.3231 6.26255 7.32296 6.73736 7.03027 7.03027C6.73737 7.32299 6.26256 7.32311 5.96973 7.03027L2.75488 3.81641V6.1416C2.75488 6.55582 2.4191 6.8916 2.00488 6.8916C1.5909 6.89133 1.25488 6.55565 1.25488 6.1416V2.00586C1.25488 1.59181 1.5909 1.25613 2.00488 1.25586L6.14258 1.25488Z"
    fill="currentColor"
  />
</svg>

<svg xmlns="http://www.w3.org/2000/svg" width="16" height="16" fill="none" data-fui-icon="true" viewBox="0 0 16 16"><path fill="currentColor" d="M8.97 8.97a.75.75 0 0 1 1.06 0l3.215 3.214V9.858a.75.75 0 0 1 1.5 0v4.136a.75.75 0 0 1-.75.75l-4.138.001a.75.75 0 0 1 .001-1.5h2.327L8.97 10.03a.75.75 0 0 1 0-1.06M6.143 1.255a.75.75 0 0 1-.001 1.5H3.815L7.03 5.97a.75.75 0 0 1-1.06 1.06L2.755 3.816v2.326a.75.75 0 1 1-1.5 0V2.006a.75.75 0 0 1 .75-.75z"/></svg>
